Numix/16/status/indicator-keyboard-Cr-1.svg

<?xml version="1.0" encoding="UTF-8" standalone="no"?>
<svg
   xmlns:dc="http://purl.org/dc/elements/1.1/"
   xmlns:cc="http://creativecommons.org/ns#"
   xmlns:rdf="http://www.w3.org/1999/02/22-rdf-syntax-ns#"
   xmlns:svg="http://www.w3.org/2000/svg"
   xmlns="http://www.w3.org/2000/svg"
   xmlns:sodipodi="http://sodipodi.sourceforge.net/DTD/sodipodi-0.dtd"
   xmlns:inkscape="http://www.inkscape.org/namespaces/inkscape"
   viewBox="0 0 16 16"
   id="svg2"
   version="1.1"
   inkscape:version="0.91 r13725"
   sodipodi:docname="indicator-keyboard-Cr-1.svg">
  <metadata
     id="metadata14">
    <rdf:RDF>
      <cc:Work
         rdf:about="">
        <dc:format>image/svg+xml</dc:format>
        <dc:type
           rdf:resource="http://purl.org/dc/dcmitype/StillImage" />
      </cc:Work>
    </rdf:RDF>
  </metadata>
  <defs
     id="defs12" />
  <sodipodi:namedview
     pagecolor="#ffffff"
     bordercolor="#666666"
     borderopacity="1"
     objecttolerance="10"
     gridtolerance="10"
     guidetolerance="10"
     inkscape:pageopacity="0"
     inkscape:pageshadow="2"
     inkscape:window-width="640"
     inkscape:window-height="480"
     id="namedview10"
     showgrid="false"
     inkscape:zoom="14.75"
     inkscape:cx="8"
     inkscape:cy="8"
     inkscape:window-x="65"
     inkscape:window-y="24"
     inkscape:window-maximized="0"
     inkscape:current-layer="svg2" />
  <path
     style="fill:#ececec;fill-opacity:1"
     d="M 1.5996094 0 C 0.71320937 2.9605947e-16 0 0.71320937 0 1.5996094 L 0 14.400391 C 2.9605947e-16 15.286791 0.71320937 16 1.5996094 16 L 14.400391 16 C 15.286791 16 16 15.286791 16 14.400391 L 16 1.5996094 C 16 0.71320937 15.286791 0 14.400391 0 L 1.5996094 0 z M 5.7050781 4.7246094 C 5.9390781 4.7246094 6.15175 4.7395312 6.34375 4.7695312 C 6.53575 4.7995313 6.7036562 4.8387187 6.8476562 4.8867188 C 6.9916563 4.9287188 7.1147969 4.9734844 7.2167969 5.0214844 C 7.3187969 5.0634844 7.3971719 5.1026719 7.4511719 5.1386719 L 7.2539062 5.6699219 C 7.1039063 5.5799219 6.9117344 5.4922031 6.6777344 5.4082031 C 6.4497344 5.3182031 6.1642656 5.2734375 5.8222656 5.2734375 C 5.4322656 5.2734375 5.090875 5.3387031 4.796875 5.4707031 C 4.508875 5.6027031 4.2663594 5.7892969 4.0683594 6.0292969 C 3.8703594 6.2692969 3.7191875 6.5547656 3.6171875 6.8847656 C 3.5211875 7.2147656 3.4726562 7.5804219 3.4726562 7.9824219 C 3.4726562 8.3964219 3.5211875 8.7714219 3.6171875 9.1074219 C 3.7191875 9.4374219 3.8665938 9.719125 4.0585938 9.953125 C 4.2505937 10.187125 4.4837656 10.366188 4.7597656 10.492188 C 5.0417656 10.618187 5.3626563 10.681641 5.7226562 10.681641 C 6.1186562 10.681641 6.4488906 10.646219 6.7128906 10.574219 C 6.9828906 10.496219 7.1881719 10.417844 7.3261719 10.339844 L 7.4960938 10.861328 C 7.4540937 10.891328 7.38325 10.928703 7.28125 10.970703 C 7.17925 11.006703 7.0505313 11.045891 6.8945312 11.087891 C 6.7385312 11.129891 6.5575156 11.161547 6.3535156 11.185547 C 6.1495156 11.215547 5.9219219 11.230469 5.6699219 11.230469 C 5.2679219 11.230469 4.8929219 11.159625 4.5449219 11.015625 C 4.2029219 10.871625 3.9025313 10.660766 3.6445312 10.384766 C 3.3925313 10.108765 3.1910156 9.7691875 3.0410156 9.3671875 C 2.8970156 8.9591875 2.8261719 8.4946562 2.8261719 7.9726562 C 2.8261719 7.4506563 2.9045469 6.9898906 3.0605469 6.5878906 C 3.2225469 6.1798906 3.4352187 5.8365469 3.6992188 5.5605469 C 3.9632188 5.2845469 4.2691875 5.0774531 4.6171875 4.9394531 C 4.9651875 4.7954531 5.3270781 4.7246094 5.7050781 4.7246094 z M 10.109375 6.3535156 C 10.301375 6.3535156 10.482391 6.3684375 10.650391 6.3984375 C 10.824391 6.4284375 10.943766 6.4582812 11.009766 6.4882812 L 10.892578 6.9921875 C 10.844578 6.9681875 10.745703 6.9439219 10.595703 6.9199219 C 10.451703 6.8899219 10.259531 6.875 10.019531 6.875 C 9.7675311 6.875 9.5642031 6.8936875 9.4082031 6.9296875 C 9.2582031 6.9656875 9.1593281 6.9955312 9.1113281 7.0195312 L 9.1113281 11.095703 L 8.5253906 11.095703 L 8.5253906 6.6582031 C 8.6753906 6.5922031 8.8824844 6.5269375 9.1464844 6.4609375 C 9.4104844 6.3889375 9.7313749 6.3535156 10.109375 6.3535156 z M 12.90625 8.8417969 L 13.173828 8.8417969 L 13.173828 12.896484 L 12.794922 12.896484 L 12.794922 9.421875 C 12.752022 9.468675 12.6952 9.5157063 12.625 9.5664062 C 12.5587 9.6171063 12.482284 9.66805 12.396484 9.71875 C 12.310684 9.76555 12.220553 9.812575 12.126953 9.859375 C 12.033353 9.902275 11.939303 9.9375437 11.845703 9.9648438 L 11.734375 9.671875 C 11.968375 9.5899751 12.178028 9.4880812 12.361328 9.3632812 C 12.544627 9.2345813 12.72685 9.0601969 12.90625 8.8417969 z "
     id="path4" />
</svg>

<svg xmlns="http://www.w3.org/2000/svg" viewBox="0 0 16 16">
 <path d="m 1.6 0 c -0.886 0 -1.6 0.713 -1.6 1.6 l 0 12.801 c 0 0.886 0.713 1.6 1.6 1.6 l 12.801 0 c 0.886 0 1.6 -0.713 1.6 -1.6 l 0 -12.801 c 0 -0.886 -0.713 -1.6 -1.6 -1.6 l -12.801 0 z m 4.105 4.725 c 0.234 0 0.447 0.015 0.639 0.045 c 0.192 0.03 0.36 0.069 0.504 0.117 c 0.144 0.042 0.267 0.087 0.369 0.135 c 0.102 0.042 0.18 0.081 0.234 0.117 l -0.197 0.531 c -0.15 -0.09 -0.342 -0.178 -0.576 -0.262 c -0.228 -0.09 -0.513 -0.135 -0.855 -0.135 c -0.39 0 -0.731 0.065 -1.025 0.197 c -0.288 0.132 -0.531 0.319 -0.729 0.559 c -0.198 0.24 -0.349 0.525 -0.451 0.855 c -0.096 0.33 -0.145 0.696 -0.145 1.098 c 0 0.414 0.049 0.789 0.145 1.125 c 0.102 0.33 0.249 0.612 0.441 0.846 c 0.192 0.234 0.425 0.413 0.701 0.539 c 0.282 0.126 0.603 0.189 0.963 0.189 c 0.396 0 0.726 -0.035 0.99 -0.107 c 0.27 -0.078 0.475 -0.156 0.613 -0.234 l 0.17 0.521 c -0.042 0.03 -0.113 0.067 -0.215 0.109 c -0.102 0.036 -0.231 0.075 -0.387 0.117 c -0.156 0.042 -0.337 0.074 -0.541 0.098 c -0.204 0.03 -0.432 0.045 -0.684 0.045 c -0.402 0 -0.777 -0.071 -1.125 -0.215 c -0.342 -0.144 -0.642 -0.355 -0.9 -0.631 c -0.252 -0.276 -0.454 -0.616 -0.604 -1.018 c -0.144 -0.408 -0.215 -0.873 -0.215 -1.395 c 0 -0.522 0.078 -0.983 0.234 -1.385 c 0.162 -0.408 0.375 -0.751 0.639 -1.027 c 0.264 -0.276 0.57 -0.483 0.918 -0.621 c 0.348 -0.144 0.71 -0.215 1.088 -0.215 z m 4.404 1.629 c 0.192 0 0.373 0.015 0.541 0.045 c 0.174 0.03 0.293 0.06 0.359 0.09 l -0.117 0.504 c -0.048 -0.024 -0.147 -0.048 -0.297 -0.072 c -0.144 -0.03 -0.336 -0.045 -0.576 -0.045 c -0.252 0 -0.455 0.019 -0.611 0.055 c -0.15 0.036 -0.249 0.066 -0.297 0.09 l 0 4.076 l -0.586 0 l 0 -4.437 c 0.15 -0.066 0.357 -0.131 0.621 -0.197 c 0.264 -0.072 0.585 -0.107 0.963 -0.107 z m 2.797 2.488 l 0.268 0 l 0 4.055 l -0.379 0 l 0 -3.475 c -0.043 0.047 -0.1 0.094 -0.17 0.145 c -0.066 0.051 -0.143 0.102 -0.229 0.152 c -0.086 0.047 -0.176 0.094 -0.27 0.141 c -0.094 0.043 -0.188 0.078 -0.281 0.105 l -0.111 -0.293 c 0.234 -0.082 0.444 -0.184 0.627 -0.309 c 0.183 -0.129 0.366 -0.303 0.545 -0.521 z" style="fill:#ececec;fill-opacity:1"/>
</svg>
